assets/images/avatars/user/custom-avatars/season-f1/steeringwheel-pink400.svg

<svg width="52" height="52" viewBox="0 0 52 52" fill="none" xmlns="http://www.w3.org/2000/svg">
<g clip-path="url(#clip0_26_81646)">
<rect width="52" height="52" fill="#F68DFE"/>
<path d="M26 52C40.3594 52 52 40.3594 52 26C52 11.6406 40.3594 0 26 0C11.6406 0 0 11.6406 0 26C0 40.3594 11.6406 52 26 52Z" fill="#F68DFE"/>
<path d="M25.9999 46.7669C37.4691 46.7669 46.7667 37.4693 46.7667 26.0002C46.7667 14.531 37.4691 5.2334 25.9999 5.2334C14.5308 5.2334 5.23315 14.531 5.23315 26.0002C5.23315 37.4693 14.5308 46.7669 25.9999 46.7669Z" fill="#F68DFE" stroke="#002140" stroke-width="0.65" stroke-miterlimit="10"/>
<path d="M16.0005 17.6797C16.447 17.6797 16.8069 18.0397 16.8069 18.4861C16.8069 18.9326 16.447 19.2891 16.0005 19.2891C15.554 19.2891 15.1975 18.9292 15.1975 18.4861C15.1975 18.0431 15.5575 17.6797 16.0005 17.6797Z" fill="#002140"/>
<path d="M36.179 17.6797C36.6254 17.6797 36.9854 18.0397 36.9854 18.4861C36.9854 18.9326 36.6254 19.2891 36.179 19.2891C35.7325 19.2891 35.376 18.9292 35.376 18.4861C35.376 18.0431 35.7359 17.6797 36.179 17.6797Z" fill="#002140"/>
<path d="M30.1427 32.0501C30.8194 32.0501 31.368 31.5015 31.368 30.8248C31.368 30.1482 30.8194 29.5996 30.1427 29.5996C29.4661 29.5996 28.9175 30.1482 28.9175 30.8248C28.9175 31.5015 29.4661 32.0501 30.1427 32.0501Z" fill="#F9B5FE"/>
<path d="M25.9479 29.5996C26.6229 29.5996 27.1732 30.1465 27.1732 30.8248C27.1732 31.5032 26.6229 32.0501 25.9479 32.0501C25.273 32.0501 24.7192 31.5032 24.7192 30.8248C24.7192 30.1465 25.2696 29.5996 25.9479 29.5996Z" fill="#F9B5FE"/>
<path d="M21.7116 29.5996C22.3899 29.5996 22.9403 30.1465 22.9403 30.8248C22.9403 31.5032 22.3899 32.0501 21.7116 32.0501C21.0332 32.0501 20.4863 31.5032 20.4863 30.8248C20.4863 30.1465 21.0332 29.5996 21.7116 29.5996Z" fill="#F9B5FE"/>
<path d="M13.9308 20.3998C14.6992 20.6317 14.5919 21.5835 14.5469 22.5873C14.5088 23.4283 14.623 24.6536 13.2801 24.6155C11.9407 24.5774 11.823 23.6983 11.8645 22.4696C11.9026 21.2443 12.6191 20.0087 13.9308 20.3998Z" fill="#F9B5FE"/>
<path d="M40.3185 22.4696C40.3565 23.6983 40.2423 24.5774 38.8994 24.6155C37.56 24.6536 37.6742 23.4283 37.6361 22.5873C37.5911 21.5835 37.4838 20.6317 38.2487 20.3998C39.5605 20.0087 40.2804 21.2443 40.3185 22.4696Z" fill="#F9B5FE"/>
<path d="M34.7599 21.3795V25.6332C34.7599 26.9069 33.7181 27.9522 32.4444 27.9522H19.7386C18.4615 27.9522 17.4197 26.9069 17.4197 25.6332V21.3795C17.4197 20.1024 18.4615 19.0605 19.7386 19.0605H32.4444C33.7181 19.0605 34.7599 20.1024 34.7599 21.3795Z" fill="#F9B5FE"/>
<path d="M25.9236 15.582C27.0935 15.5578 31.008 15.5336 35.9886 16.1081C40.3288 16.61 43.2119 19.1574 44.1568 22.2412L44.0357 22.2793C44.0357 22.2793 42.0421 22.2793 41.8898 24.3871C41.7375 26.495 41.5437 27.4537 39.7439 27.5679L39.647 27.5852C39.5501 27.066 39.2144 26.8341 38.709 26.7615C37.3419 26.5676 37.2519 27.9521 36.6773 29.5615C36.1028 31.1709 35.8744 33.5834 33.1124 33.5834H19.0671C16.3086 33.5834 16.0802 31.1709 15.5022 29.5615C14.9276 27.9521 14.8376 26.5676 13.4739 26.7615C12.9721 26.8341 12.6363 27.066 12.536 27.5852L12.4391 27.5679C10.6358 27.4537 10.4454 26.495 10.2932 24.3871C10.1374 22.2793 8.14381 22.2793 8.14381 22.2793L8.02612 22.2412C8.97101 19.1574 11.8541 16.61 16.1944 16.1081C21.1715 15.5336 24.8334 15.5578 25.9202 15.582H25.9236ZM38.8994 24.6156C40.2423 24.5775 40.3565 23.6984 40.3185 22.4697C40.2804 21.2444 39.5605 20.0088 38.2487 20.3999C37.4838 20.6318 37.5911 21.5836 37.6361 22.5873C37.6741 23.4284 37.5599 24.6536 38.8994 24.6156ZM36.9854 18.4859C36.9854 18.0394 36.6254 17.6795 36.179 17.6795C35.7325 17.6795 35.376 18.0394 35.376 18.4859C35.376 18.9324 35.7359 19.2889 36.179 19.2889C36.622 19.2889 36.9854 18.9289 36.9854 18.4859ZM37.0234 25.422C37.0234 25.1451 36.7985 24.9236 36.5251 24.9236C36.2516 24.9236 36.0267 25.1451 36.0267 25.422C36.0267 25.6989 36.2482 25.9204 36.5251 25.9204C36.802 25.9204 37.0234 25.6954 37.0234 25.422ZM35.1441 29.2362C35.1441 28.9904 34.9468 28.7931 34.7045 28.7931C34.4622 28.7931 34.2615 28.9904 34.2615 29.2362C34.2615 29.4819 34.4588 29.6757 34.7045 29.6757C34.9502 29.6757 35.1441 29.4784 35.1441 29.2362ZM34.7599 25.6331V21.3794C34.7599 20.1023 33.7181 19.0605 32.4444 19.0605H19.7386C18.4614 19.0605 17.4196 20.1023 17.4196 21.3794V25.6331C17.4196 26.9068 18.4614 27.9521 19.7386 27.9521H32.4444C33.7181 27.9521 34.7599 26.9068 34.7599 25.6331ZM34.0919 31.2852C34.0919 31.0429 33.8946 30.8456 33.6488 30.8456C33.4031 30.8456 33.2093 31.0429 33.2093 31.2852C33.2093 31.5274 33.4066 31.7247 33.6488 31.7247C33.8911 31.7247 34.0919 31.5274 34.0919 31.2852ZM31.368 30.8248C31.368 30.1464 30.8211 29.5996 30.1427 29.5996C29.4644 29.5996 28.9175 30.1464 28.9175 30.8248C28.9175 31.5032 29.4644 32.0501 30.1427 32.0501C30.8211 32.0501 31.368 31.5032 31.368 30.8248ZM27.1731 30.8248C27.1731 30.1464 26.6228 29.5996 25.9478 29.5996C25.2729 29.5996 24.7191 30.1464 24.7191 30.8248C24.7191 31.5032 25.2695 32.0501 25.9478 32.0501C26.6262 32.0501 27.1731 31.5032 27.1731 30.8248ZM22.9401 30.8248C22.9401 30.1464 22.3898 29.5996 21.7114 29.5996C21.033 29.5996 20.4862 30.1464 20.4862 30.8248C20.4862 31.5032 21.033 32.0501 21.7114 32.0501C22.3898 32.0501 22.9401 31.5032 22.9401 30.8248ZM18.9321 31.3059C18.9321 31.0602 18.7349 30.8629 18.4926 30.8629C18.2503 30.8629 18.053 31.0602 18.053 31.3059C18.053 31.5517 18.2503 31.7455 18.4926 31.7455C18.7349 31.7455 18.9321 31.5482 18.9321 31.3059ZM17.918 29.2362C17.918 28.9904 17.7207 28.7931 17.4785 28.7931C17.2362 28.7931 17.0354 28.9904 17.0354 29.2362C17.0354 29.4819 17.2327 29.6757 17.4785 29.6757C17.7242 29.6757 17.918 29.4784 17.918 29.2362ZM16.807 18.4859C16.807 18.0394 16.447 17.6795 16.0006 17.6795C15.5541 17.6795 15.1976 18.0394 15.1976 18.4859C15.1976 18.9324 15.5575 19.2889 16.0006 19.2889C16.4436 19.2889 16.807 18.9289 16.807 18.4859ZM16.1563 25.422C16.1563 25.1451 15.9313 24.9236 15.6579 24.9236C15.3845 24.9236 15.1595 25.1451 15.1595 25.422C15.1595 25.6989 15.381 25.9204 15.6579 25.9204C15.9348 25.9204 16.1563 25.6954 16.1563 25.422ZM14.5469 22.5873C14.5919 21.5836 14.6992 20.6318 13.9308 20.3999C12.619 20.0088 11.9026 21.2444 11.8645 22.4697C11.823 23.6984 11.9407 24.5775 13.2801 24.6156C14.623 24.6536 14.5088 23.4284 14.5469 22.5873Z" fill="#CF4CD9"/>
<path d="M12.536 27.5852C12.4253 28.1667 12.6157 29.1116 13.2041 30.5964C14.5366 33.9502 14.3531 35.5389 12.6295 36.1134C10.9059 36.688 10.2136 35.1927 9.41065 33.2407C8.6042 31.2851 7.68701 28.5266 7.68701 24.5013C7.68701 23.7329 7.80122 22.9715 8.0262 22.2412L8.14388 22.2793C8.14388 22.2793 10.1375 22.2793 10.2932 24.3871C10.4455 26.4949 10.6359 27.4537 12.4391 27.5679L12.536 27.5852Z" fill="#712A76"/>
<path d="M44.1568 22.2412C44.3818 22.9715 44.496 23.7329 44.496 24.5013C44.496 28.5266 43.5754 31.2851 42.7724 33.2407C41.9659 35.1927 41.2772 36.688 39.5535 36.1134C37.8264 35.5389 37.6464 33.9502 38.9755 30.5964C39.5674 29.1116 39.7577 28.1667 39.647 27.5852L39.7439 27.5679C41.5437 27.4537 41.7375 26.4949 41.8898 24.3871C42.0421 22.2793 44.0357 22.2793 44.0357 22.2793L44.1568 22.2412Z" fill="#712A76"/>
<path d="M25.9202 15.582C24.8334 15.5578 21.1716 15.5336 16.1945 16.1081C11.8542 16.61 8.97108 19.1574 8.0262 22.2412C7.80122 22.9715 7.68701 23.733 7.68701 24.5013C7.68701 28.5266 8.6042 31.2852 9.41065 33.2407C10.2136 35.1928 10.9059 36.688 12.6295 36.1134C14.3531 35.5389 14.5366 33.9502 13.2041 30.5964C12.6157 29.1116 12.4253 28.1667 12.536 27.5852C12.6364 27.066 12.9721 26.8341 13.474 26.7615C14.8377 26.5676 14.9277 27.9521 15.5022 29.5615C16.0802 31.1709 16.3087 33.5834 19.0672 33.5834H26.4463" stroke="#002140" stroke-width="0.65" stroke-linecap="round" stroke-linejoin="round"/>
<path d="M26.2524 15.5924C26.2524 15.5924 26.1382 15.5924 25.9236 15.582" stroke="#002140" stroke-width="0.65" stroke-linecap="round" stroke-linejoin="round"/>
<path d="M13.9308 20.3998C12.6191 20.0087 11.9026 21.2443 11.8645 22.4696C11.823 23.6983 11.9407 24.5774 13.2801 24.6155C14.623 24.6536 14.5088 23.4283 14.5469 22.5873C14.5919 21.5835 14.6992 20.6317 13.9308 20.3998Z" stroke="#002140" stroke-width="0.65" stroke-linecap="round" stroke-linejoin="round"/>
<path d="M8.1438 22.2793C8.1438 22.2793 10.1374 22.2793 10.2931 24.3871C10.4454 26.495 10.6358 27.4537 12.4391 27.5679" stroke="#002140" stroke-width="0.65" stroke-linecap="round" stroke-linejoin="round"/>
<path d="M24.4908 27.9522H19.7386C18.4615 27.9522 17.4197 26.9069 17.4197 25.6332V21.3795C17.4197 20.1024 18.4615 19.0605 19.7386 19.0605H23.9716" stroke="#002140" stroke-width="0.65" stroke-linecap="round" stroke-linejoin="round"/>
<path d="M16.8069 18.4861C16.8069 18.9292 16.447 19.2891 16.0005 19.2891C15.554 19.2891 15.1975 18.9292 15.1975 18.4861C15.1975 18.0431 15.5575 17.6797 16.0005 17.6797C16.4435 17.6797 16.8069 18.0397 16.8069 18.4861Z" stroke="#002140" stroke-width="0.65" stroke-linecap="round" stroke-linejoin="round"/>
<path d="M22.9403 30.8248C22.9403 31.5032 22.3899 32.0501 21.7116 32.0501C21.0332 32.0501 20.4863 31.5032 20.4863 30.8248C20.4863 30.1465 21.0332 29.5996 21.7116 29.5996C22.3899 29.5996 22.9403 30.1465 22.9403 30.8248Z" stroke="#002140" stroke-width="0.65" stroke-linecap="round" stroke-linejoin="round"/>
<path d="M15.6578 25.9206C15.9331 25.9206 16.1562 25.6975 16.1562 25.4222C16.1562 25.147 15.9331 24.9238 15.6578 24.9238C15.3826 24.9238 15.1594 25.147 15.1594 25.4222C15.1594 25.6975 15.3826 25.9206 15.6578 25.9206Z" stroke="#002140" stroke-width="0.65" stroke-linecap="round" stroke-linejoin="round"/>
<path d="M17.918 29.236C17.918 29.4783 17.7207 29.6756 17.4784 29.6756C17.2362 29.6756 17.0354 29.4783 17.0354 29.236C17.0354 28.9937 17.2327 28.793 17.4784 28.793C17.7242 28.793 17.918 28.9902 17.918 29.236Z" stroke="#002140" stroke-width="0.65" stroke-linecap="round" stroke-linejoin="round"/>
<path d="M25.5637 15.5924C25.5637 15.5924 25.6883 15.5924 25.9202 15.582H25.9237C27.0936 15.5578 31.0081 15.5336 35.9886 16.1081C40.3289 16.61 43.212 19.1574 44.1569 22.2412C44.3819 22.9715 44.4961 23.733 44.4961 24.5013C44.4961 28.5266 43.5754 31.2852 42.7724 33.2407C41.966 35.1928 41.2773 36.688 39.5536 36.1134C37.8265 35.5389 37.6465 33.9502 38.9756 30.5964C39.5674 29.1116 39.7578 28.1667 39.6471 27.5852C39.5501 27.066 39.2144 26.8342 38.7091 26.7615C37.342 26.5676 37.2519 27.9521 36.6774 29.5615C36.1029 31.1709 35.8744 33.5834 33.1124 33.5834H26.4463" stroke="#002140" stroke-width="0.65" stroke-linecap="round" stroke-linejoin="round"/>
<path d="M38.2487 20.3998C39.5605 20.0087 40.2804 21.2443 40.3185 22.4696C40.3565 23.6983 40.2423 24.5774 38.8994 24.6155C37.56 24.6536 37.6742 23.4283 37.6361 22.5873C37.5911 21.5835 37.4838 20.6317 38.2487 20.3998Z" stroke="#002140" stroke-width="0.65" stroke-linecap="round" stroke-linejoin="round"/>
<path d="M44.0357 22.2793C44.0357 22.2793 42.0421 22.2793 41.8898 24.3871C41.7375 26.495 41.5437 27.4537 39.7439 27.5679" stroke="#002140" stroke-width="0.65" stroke-linecap="round" stroke-linejoin="round"/>
<path d="M24.4908 27.9522H32.4445C33.7182 27.9522 34.76 26.9069 34.76 25.6332V21.3795C34.76 20.1024 33.7182 19.0605 32.4445 19.0605H23.9717" stroke="#002140" stroke-width="0.65" stroke-linecap="round" stroke-linejoin="round"/>
<path d="M35.376 18.4861C35.376 18.9292 35.7359 19.2891 36.179 19.2891C36.622 19.2891 36.9854 18.9292 36.9854 18.4861C36.9854 18.0431 36.6254 17.6797 36.179 17.6797C35.7325 17.6797 35.376 18.0397 35.376 18.4861Z" stroke="#002140" stroke-width="0.65" stroke-linecap="round" stroke-linejoin="round"/>
<path d="M30.1427 32.0501C30.8194 32.0501 31.368 31.5015 31.368 30.8248C31.368 30.1482 30.8194 29.5996 30.1427 29.5996C29.4661 29.5996 28.9175 30.1482 28.9175 30.8248C28.9175 31.5015 29.4661 32.0501 30.1427 32.0501Z" stroke="#002140" stroke-width="0.65" stroke-linecap="round" stroke-linejoin="round"/>
<path d="M36.525 25.9206C36.8003 25.9206 37.0234 25.6975 37.0234 25.4222C37.0234 25.147 36.8003 24.9238 36.525 24.9238C36.2498 24.9238 36.0266 25.147 36.0266 25.4222C36.0266 25.6975 36.2498 25.9206 36.525 25.9206Z" stroke="#002140" stroke-width="0.65" stroke-linecap="round" stroke-linejoin="round"/>
<path d="M34.2615 29.236C34.2615 29.4783 34.4588 29.6756 34.7045 29.6756C34.9502 29.6756 35.1441 29.4783 35.1441 29.236C35.1441 28.9937 34.9468 28.793 34.7045 28.793C34.4622 28.793 34.2615 28.9902 34.2615 29.236Z" stroke="#002140" stroke-width="0.65" stroke-linecap="round" stroke-linejoin="round"/>
<path d="M27.1732 30.8248C27.1732 31.5032 26.6229 32.0501 25.9479 32.0501C25.273 32.0501 24.7192 31.5032 24.7192 30.8248C24.7192 30.1465 25.2696 29.5996 25.9479 29.5996C26.6263 29.5996 27.1732 30.1465 27.1732 30.8248Z" stroke="#002140" stroke-width="0.65" stroke-linecap="round" stroke-linejoin="round"/>
<path d="M33.2095 31.2853C33.2095 31.5276 33.4067 31.7248 33.649 31.7248C33.8913 31.7248 34.0921 31.5276 34.0921 31.2853C34.0921 31.043 33.8948 30.8457 33.649 30.8457C33.4033 30.8457 33.2095 31.043 33.2095 31.2853Z" stroke="#002140" stroke-width="0.65" stroke-linecap="round" stroke-linejoin="round"/>
<path d="M18.9321 31.3063C18.9321 31.5486 18.7348 31.7459 18.4925 31.7459C18.2503 31.7459 18.053 31.5486 18.053 31.3063C18.053 31.064 18.2503 30.8633 18.4925 30.8633C18.7348 30.8633 18.9321 31.0606 18.9321 31.3063Z" stroke="#002140" stroke-width="0.65" stroke-linecap="round" stroke-linejoin="round"/>
</g>
<defs>
<clipPath id="clip0_26_81646">
<rect width="52" height="52" fill="white"/>
</clipPath>
</defs>
</svg>

<svg xmlns="http://www.w3.org/2000/svg" width="52" height="52" fill="none" viewBox="0 0 52 52"><g clip-path="url(#a)"><path fill="#f68dfe" d="M0 0h52v52H0z"/><path fill="#f68dfe" d="M26 52c14.36 0 26-11.64 26-26S40.36 0 26 0 0 11.64 0 26s11.64 26 26 26"/><path fill="#f68dfe" stroke="#002140" stroke-miterlimit="10" stroke-width=".65" d="M26 46.767c11.47 0 20.767-9.298 20.767-20.767S37.469 5.233 26 5.233C14.53 5.233 5.233 14.531 5.233 26c0 11.47 9.298 20.767 20.767 20.767Z"/><path fill="#002140" d="M16 17.68a.805.805 0 1 1 .003 1.61.805.805 0 0 1-.003-1.61m20.179 0a.805.805 0 1 1 .003 1.61.805.805 0 0 1-.003-1.61"/><path fill="#f9b5fe" d="M30.143 32.05a1.225 1.225 0 1 0 0-2.45 1.225 1.225 0 0 0 0 2.45m-4.195-2.45a1.225 1.225 0 1 1 0 2.45 1.226 1.226 0 1 1 0-2.45m-4.236 0a1.226 1.226 0 1 1-1.226 1.225c0-.678.547-1.225 1.226-1.225m-7.782-9.2c.77.232.662 1.184.617 2.187-.038.841.076 2.067-1.267 2.029-1.34-.039-1.457-.918-1.415-2.146.038-1.226.754-2.461 2.066-2.07m26.388 2.07c.037 1.228-.077 2.107-1.42 2.146-1.339.038-1.225-1.188-1.263-2.029-.045-1.003-.152-1.955.613-2.187 1.311-.391 2.031.844 2.07 2.07m-5.559-1.09v4.253a2.325 2.325 0 0 1-2.316 2.32H19.74a2.326 2.326 0 0 1-2.32-2.32V21.38a2.324 2.324 0 0 1 2.32-2.32h12.705a2.323 2.323 0 0 1 2.316 2.32"/><path fill="#cf4cd9" d="M25.924 15.582c1.17-.024 5.084-.048 10.065.526 4.34.502 7.223 3.05 8.168 6.133l-.121.038s-1.994 0-2.146 2.108c-.153 2.108-.346 3.067-2.146 3.18l-.097.018c-.097-.519-.433-.75-.938-.823-1.367-.194-1.457 1.19-2.032 2.8-.574 1.609-.803 4.021-3.565 4.021H19.067c-2.758 0-2.987-2.412-3.565-4.021-.574-1.61-.664-2.994-2.028-2.8-.502.072-.838.304-.938.823l-.097-.017c-1.803-.114-1.994-1.073-2.146-3.18-.156-2.109-2.15-2.109-2.15-2.109l-.117-.038c.945-3.084 3.828-5.631 8.168-6.133 4.978-.574 8.64-.55 9.726-.526zm12.975 9.034c1.343-.038 1.457-.918 1.42-2.146-.039-1.226-.759-2.461-2.07-2.07-.765.232-.658 1.184-.613 2.187.038.841-.076 2.067 1.263 2.029m-1.914-6.13a.805.805 0 1 0-1.61-.003.805.805 0 0 0 1.61.003m.038 6.936a.498.498 0 1 0-.997 0 .498.498 0 0 0 .997 0m-1.879 3.814a.441.441 0 1 0-.882-.004.441.441 0 0 0 .882.004m-.384-3.603V21.38a2.323 2.323 0 0 0-2.316-2.318H19.74a2.324 2.324 0 0 0-2.32 2.318v4.254a2.326 2.326 0 0 0 2.32 2.32h12.705a2.325 2.325 0 0 0 2.316-2.32m-.668 5.652a.441.441 0 0 0-.883 0c0 .242.198.44.44.44a.443.443 0 0 0 .443-.44m-2.724-.46c0-.679-.547-1.225-1.225-1.225-.679 0-1.226.546-1.226 1.225 0 .678.547 1.225 1.226 1.225s1.225-.547 1.225-1.225m-4.195 0a1.228 1.228 0 0 0-2.454 0c0 .678.55 1.225 1.229 1.225.678 0 1.225-.547 1.225-1.225m-4.233 0c0-.679-.55-1.225-1.229-1.225-.678 0-1.225.546-1.225 1.225 0 .678.547 1.225 1.225 1.225.679 0 1.23-.547 1.23-1.225m-4.008.48a.44.44 0 0 0-.44-.442.441.441 0 0 0 0 .883.44.44 0 0 0 .44-.44m-1.014-2.069a.441.441 0 1 0-.882-.004.441.441 0 0 0 .882.004m-1.111-10.75a.805.805 0 1 0-1.61-.003.805.805 0 0 0 1.61.003m-.65 6.936a.499.499 0 1 0-.998 0 .499.499 0 0 0 .997 0m-1.61-2.835c.045-1.003.152-1.955-.616-2.187-1.312-.391-2.028.844-2.066 2.07-.042 1.228.076 2.108 1.415 2.146 1.343.038 1.229-1.188 1.267-2.029"/><path fill="#712a76" d="M12.536 27.585c-.11.582.08 1.527.668 3.011 1.333 3.354 1.15 4.943-.575 5.517-1.723.575-2.415-.92-3.218-2.872-.807-1.956-1.724-4.714-1.724-8.74 0-.768.114-1.53.34-2.26l.117.038s1.993 0 2.15 2.108c.151 2.108.342 3.067 2.145 3.18zm31.621-5.344c.225.73.339 1.492.339 2.26 0 4.026-.92 6.784-1.724 8.74-.806 1.952-1.495 3.447-3.218 2.872-1.728-.574-1.908-2.163-.579-5.517.592-1.484.783-2.43.672-3.01l.097-.018c1.8-.114 1.993-1.073 2.146-3.18.152-2.109 2.146-2.109 2.146-2.109z"/><path stroke="#002140" stroke-linecap="round" stroke-linejoin="round" stroke-width=".65" d="M25.92 15.582c-1.087-.024-4.748-.048-9.725.526-4.34.502-7.224 3.05-8.169 6.133a7.7 7.7 0 0 0-.339 2.26c0 4.026.917 6.784 1.724 8.74.803 1.952 1.495 3.447 3.219 2.872 1.723-.574 1.907-2.163.574-5.517-.588-1.484-.779-2.43-.668-3.01.1-.52.436-.752.938-.824 1.364-.194 1.454 1.19 2.028 2.8.578 1.609.807 4.021 3.565 4.021h7.38m-.195-17.991s-.114 0-.328-.01"/><path stroke="#002140" stroke-linecap="round" stroke-linejoin="round" stroke-width=".65" d="M13.93 20.4c-1.31-.391-2.027.844-2.065 2.07-.042 1.228.076 2.107 1.415 2.146 1.343.038 1.229-1.188 1.267-2.029.045-1.003.152-1.955-.616-2.187m-5.787 1.88s1.993 0 2.15 2.107c.151 2.108.342 3.067 2.145 3.18m12.051.385h-4.75a2.326 2.326 0 0 1-2.32-2.319V21.38a2.324 2.324 0 0 1 2.32-2.32h4.233m-7.166-.574a.804.804 0 1 1-1.609-.002.804.804 0 0 1 1.609.002m6.133 12.339c0 .678-.55 1.225-1.228 1.225a1.223 1.223 0 0 1-1.226-1.225c0-.678.547-1.225 1.226-1.225s1.228.546 1.228 1.225m-7.282-4.905a.498.498 0 1 0 0-.996.498.498 0 0 0 0 .997m2.26 3.315a.44.44 0 1 1-.44-.443c.246 0 .44.197.44.443m7.646-13.644s.124 0 .356-.01h.004c1.17-.024 5.084-.048 10.065.526 4.34.502 7.223 3.05 8.168 6.133.225.73.34 1.492.34 2.26 0 4.026-.922 6.784-1.725 8.74-.806 1.952-1.495 3.447-3.218 2.872-1.727-.574-1.907-2.163-.578-5.517.591-1.484.782-2.43.671-3.01-.097-.52-.433-.752-.938-.824-1.367-.194-1.457 1.19-2.032 2.8-.574 1.609-.803 4.021-3.565 4.021h-6.666"/><path stroke="#002140" stroke-linecap="round" stroke-linejoin="round" stroke-width=".65" d="M38.249 20.4c1.311-.391 2.031.844 2.07 2.07.037 1.228-.077 2.107-1.42 2.146-1.339.038-1.225-1.188-1.263-2.029-.045-1.003-.152-1.955.613-2.187m5.787 1.88s-1.994 0-2.146 2.107c-.153 2.108-.346 3.067-2.146 3.18m-15.254.385h7.954a2.325 2.325 0 0 0 2.316-2.319V21.38a2.323 2.323 0 0 0-2.315-2.32h-8.473m11.404-.574a.803.803 0 1 0 .803-.806.8.8 0 0 0-.803.806M30.143 32.05a1.225 1.225 0 1 0 0-2.45 1.225 1.225 0 0 0 0 2.45m6.382-6.13a.498.498 0 1 0 0-.996.498.498 0 0 0 0 .997m-2.263 3.315a.441.441 0 1 0 .881-.003.441.441 0 0 0-.882.003m-7.088 1.589c0 .678-.55 1.225-1.225 1.225a1.226 1.226 0 1 1 0-2.45c.678 0 1.225.547 1.225 1.225m6.037.46c0 .243.197.44.439.44a.443.443 0 0 0 .443-.44.441.441 0 0 0-.883 0m-14.277.021a.44.44 0 1 1-.88 0 .44.44 0 0 1 .88 0"/></g><defs><clipPath id="a"><path fill="#fff" d="M0 0h52v52H0z"/></clipPath></defs></svg>
